logos/notion.svg

<?xml version="1.0" encoding="UTF-8"?>
<svg width="512px" height="178px" viewBox="0 0 512 178" version="1.1" xmlns="http://www.w3.org/2000/svg" preserveAspectRatio="xMidYMid">
    <title>Notion</title>
    <g>
        <path d="M10.6909756,7.66552529 L109.012413,0.403954086 C121.089365,-0.63256709 124.193006,0.0663443314 131.786264,5.58655996 L163.172125,27.6970374 C168.348808,31.4995894 170.072395,32.5361105 170.072395,36.6762723 L170.072395,157.937404 C170.072395,165.536585 167.312287,170.032125 157.651909,170.719191 L43.4746596,177.631306 C36.2249343,177.974839 32.7718381,176.938318 28.9752091,172.099245 L5.86374837,142.046054 C1.71766366,136.513992 0,132.37383 0,127.534757 L0,19.7484007 C0,13.5351966 2.76010782,8.35259076 10.6909756,7.66552529 Z" fill="#FFFFFF"></path>
        <path d="M109.012413,0.403954086 L10.6909756,7.66552529 C2.76010782,8.35259076 0,13.5351966 0,19.7484007 L0,127.534757 C0,132.37383 1.71766366,136.513992 5.86374837,142.046054 L28.9752091,172.099245 C32.7718381,176.938318 36.2249343,177.974839 43.4746596,177.631306 L157.651909,170.719191 C167.306364,170.032125 170.072395,165.536585 170.072395,157.937404 L170.072395,36.6762723 C170.072395,32.7493377 168.520574,31.6180489 163.953958,28.2656433 C163.691191,28.07636 163.428605,27.8868246 163.166202,27.6970374 L131.786264,5.58655996 C124.193006,0.0663443314 121.089365,-0.63256709 109.012413,0.403954086 Z M46.0570781,34.6920746 C36.7343105,35.3199103 34.6198073,35.4620617 29.3246648,31.1560566 L15.8617355,20.4473121 C14.4935275,19.0613353 15.180593,17.3318256 18.6277663,16.9882929 L113.146652,10.0821004 C121.083442,9.38911194 125.217681,12.1551427 128.321322,14.5717178 L144.532513,26.3169835 C145.225501,26.6664392 146.949088,28.7335586 144.876045,28.7335586 L47.2653656,34.6091529 L46.0570781,34.6920746 Z M35.1884132,156.900883 L35.1884132,53.9595225 C35.1884132,49.4639821 36.5684671,47.3909397 40.7027058,47.041484 L152.812836,40.4788242 C156.615388,40.1352915 158.333052,42.5518666 158.333052,47.041484 L158.333052,149.295779 C158.333052,153.791319 157.640063,157.593871 151.432782,157.937404 L44.1498791,164.156531 C37.942598,164.500064 35.1884132,162.432944 35.1884132,156.900883 Z M141.091262,59.4797381 C141.778328,62.5893017 141.091262,65.6988652 137.981699,66.0542439 L132.810939,67.0789191 L132.810939,143.082575 C128.321322,145.49915 124.187083,146.879204 120.733987,146.879204 C115.213771,146.879204 113.833717,145.149694 109.699478,139.973011 L75.885196,86.7728214 L75.885196,138.243502 L86.5820946,140.666 C86.5820946,140.666 86.5820946,146.885127 77.9523154,146.885127 L54.1597122,148.265181 C53.4667237,146.879204 54.1597122,143.426107 56.5703643,142.739042 L62.7835684,141.015455 L62.7835684,72.9604364 L54.1597122,72.261525 C53.4667237,69.1519614 55.1903104,64.662344 60.0234605,64.3128883 L85.5514964,62.5952246 L120.733987,116.48248 L120.733987,68.8084287 L111.766598,67.7778305 C111.073609,63.9693556 113.833717,61.2033248 117.28089,60.865715 L141.091262,59.4797381 L141.091262,59.4797381 Z" fill="#000000"></path>
        <path d="M245.412677,125.8704 L245.412677,79.019643 L246.224125,79.019643 L280.008792,125.8704 L290.646461,125.8704 L290.646461,57.0217022 L278.818273,57.0217022 L278.818273,103.825076 L278.006825,103.825076 L244.222158,57.0217022 L233.543028,57.0217022 L233.543028,125.864477 L245.4186,125.864477 L245.412677,125.8704 Z M324.075749,126.92469 C339.682797,126.92469 349.177331,116.713476 349.177331,99.7737585 C349.177331,82.8814248 339.635413,72.6228266 324.075749,72.6228266 C308.569393,72.6228266 298.980091,82.9288086 298.980091,99.7737585 C298.980091,116.713476 308.427241,126.92469 324.075749,126.92469 Z M324.075749,116.997779 C315.825041,116.997779 311.104427,110.701653 311.104427,99.7737585 C311.104427,88.8932476 315.825041,82.549738 324.075749,82.549738 C332.284997,82.549738 337.005611,88.8932476 337.005611,99.7737585 C337.005611,110.701653 332.332381,116.997779 324.075749,116.997779 Z M359.986766,60.8894069 L359.986766,74.0088035 L351.736057,74.0088035 L351.736057,83.4559537 L359.986766,83.4559537 L359.986766,111.939556 C359.986766,122.056002 364.760686,126.113242 376.736948,126.113242 C379.023218,126.113242 381.220643,125.876323 382.938306,125.538713 L382.938306,116.281099 C381.504945,116.42325 380.59873,116.518018 378.92845,116.518018 C373.970917,116.518018 371.773492,114.231748 371.773492,109.078757 L371.773492,83.4559537 L382.938306,83.4559537 L382.938306,74.0088035 L371.773492,74.0088035 L371.773492,60.8834839 L359.986766,60.8834839 L359.986766,60.8894069 Z M390.028111,125.8704 L401.814838,125.8704 L401.814838,73.6711938 L390.028111,73.6711938 L390.028111,125.8704 Z M395.897782,65.0414146 C399.806948,65.0414146 402.957972,61.8844673 402.957972,57.9279179 C402.957972,53.9654455 399.812871,50.7670373 395.897782,50.7670373 C392.036001,50.7670373 388.837592,53.9654455 388.837592,57.9279179 C388.837592,61.8844673 392.036001,65.0354916 395.897782,65.0354916 L395.897782,65.0414146 Z M434.148375,126.92469 C449.7495,126.92469 459.244034,116.713476 459.244034,99.7737585 C459.244034,82.8814248 449.702116,72.6228266 434.148375,72.6228266 C418.636095,72.6228266 409.046794,82.9288086 409.046794,99.7737585 C409.046794,116.713476 418.493944,126.92469 434.148375,126.92469 Z M434.148375,116.997779 C425.891744,116.997779 421.165207,110.701653 421.165207,99.7737585 C421.165207,88.8932476 425.891744,82.549738 434.148375,82.549738 C442.3517,82.549738 447.078237,88.8932476 447.078237,99.7737585 C447.078237,110.701653 442.399084,116.997779 434.148375,116.997779 Z M466.286455,125.8704 L478.120565,125.8704 L478.120565,95.4795993 C478.120565,87.7974967 482.562799,82.9288086 489.617066,82.9288086 C496.82533,82.9288086 500.159967,86.9386648 500.159967,94.9050704 L500.159967,125.8704 L512,125.8704 L512,92.0916558 C512,79.6356328 505.650567,72.6228266 494.011915,72.6228266 C486.229122,72.6228266 480.981363,76.2003054 478.499636,82.022593 L477.688188,82.022593 L477.688188,73.6711938 L466.286455,73.6711938 L466.286455,125.8704 L466.286455,125.8704 Z" fill="#000000"></path>
    </g>
</svg>

<svg preserveAspectRatio="xMidYMid" viewBox="0 0 512 178" xmlns="http://www.w3.org/2000/svg">
  <path fill="#FFF" d="M10.691 7.666 109.012.404c12.077-1.037 15.181-.338 22.774 5.183l31.386 22.11c5.177 3.803 6.9 4.84 6.9 8.98v121.26c0 7.6-2.76 12.095-12.42 12.782l-114.177 6.912c-7.25.344-10.703-.693-14.5-5.532L5.864 142.046C1.718 136.514 0 132.374 0 127.535V19.748C0 13.535 2.76 8.353 10.691 7.666Z"/>
  <path d="M109.012.404 10.691 7.666C2.761 8.353 0 13.536 0 19.748v107.787c0 4.839 1.718 8.979 5.864 14.511L28.975 172.1c3.797 4.84 7.25 5.876 14.5 5.532l114.177-6.912c9.654-.687 12.42-5.182 12.42-12.782V36.677c0-3.928-1.551-5.059-6.118-8.411l-.788-.569-31.38-22.11C124.193.067 121.09-.633 109.012.404ZM46.057 34.692c-9.323.628-11.437.77-16.732-3.536L15.862 20.447c-1.368-1.386-.681-3.115 2.766-3.459l94.519-6.906c7.936-.693 12.07 2.073 15.174 4.49l16.212 11.745c.693.35 2.416 2.417.343 2.417l-97.61 5.875-1.209.083ZM35.188 156.901V53.96c0-4.496 1.38-6.57 5.515-6.919l112.11-6.562c3.802-.344 5.52 2.073 5.52 6.562v102.255c0 4.495-.693 8.298-6.9 8.641l-107.283 6.22c-6.207.343-8.962-1.724-8.962-7.256ZM141.091 59.48c.687 3.11 0 6.219-3.11 6.574l-5.17 1.025v76.004c-4.49 2.416-8.624 3.796-12.077 3.796-5.52 0-6.9-1.73-11.035-6.906l-33.814-53.2v51.47l10.697 2.423s0 6.22-8.63 6.22l-23.792 1.38c-.693-1.387 0-4.84 2.41-5.527l6.214-1.724V72.96l-8.624-.698c-.693-3.11 1.03-7.6 5.863-7.95l25.528-1.717 35.183 53.887V68.808l-8.967-1.03c-.693-3.809 2.067-6.575 5.514-6.912l23.81-1.386Z"/>
  <path d="M245.413 125.87V79.02h.811l33.785 46.85h10.637V57.022h-11.828v46.803h-.811l-33.785-46.803h-10.679v68.842h11.876l-.006.006Zm78.663 1.055c15.607 0 25.101-10.212 25.101-27.151 0-16.893-9.542-27.151-25.101-27.151-15.507 0-25.096 10.306-25.096 27.15 0 16.94 9.447 27.152 25.096 27.152Zm0-9.927c-8.251 0-12.972-6.296-12.972-17.224 0-10.88 4.721-17.224 12.972-17.224 8.209 0 12.93 6.343 12.93 17.224 0 10.928-4.674 17.224-12.93 17.224Zm35.91-56.109v13.12h-8.25v9.447h8.25v28.484c0 10.116 4.775 14.173 16.75 14.173 2.287 0 4.485-.237 6.202-.574v-9.258c-1.433.142-2.34.237-4.01.237-4.957 0-7.155-2.286-7.155-7.44V83.457h11.165V74.01h-11.165V60.883h-11.786v.006Zm30.042 64.981h11.787V73.671h-11.787v52.2Zm5.87-60.829c3.909 0 7.06-3.157 7.06-7.113 0-3.963-3.145-7.161-7.06-7.161-3.862 0-7.06 3.198-7.06 7.16 0 3.957 3.198 7.108 7.06 7.108v.006Zm38.25 61.884c15.601 0 25.096-10.212 25.096-27.151 0-16.893-9.542-27.151-25.096-27.151-15.512 0-25.101 10.306-25.101 27.15 0 16.94 9.447 27.152 25.101 27.152Zm0-9.927c-8.256 0-12.983-6.296-12.983-17.224 0-10.88 4.727-17.224 12.983-17.224 8.204 0 12.93 6.343 12.93 17.224 0 10.928-4.679 17.224-12.93 17.224Zm32.138 8.872h11.835V95.48c0-7.683 4.442-12.551 11.496-12.551 7.208 0 10.543 4.01 10.543 11.976v30.965H512V92.092c0-12.456-6.35-19.47-17.988-19.47-7.783 0-13.03 3.578-15.512 9.4h-.812v-8.35h-11.402v52.198Z"/>
</svg>
